icons/school_2.svg

<svg fill="none" height="128" viewBox="0 0 128 128" width="128" xmlns="http://www.w3.org/2000/svg"><rect fill="#fa4d56" height="128" rx="10" width="128"/><path d="m29.1457 72.5776c0-3.3137 2.6863-6 6-6h73.8003c1.051 0 1.594 1.752.842 2.4861-1.881 1.8352-3.86 4.6899-3.86 8.5746 0 4.0098 2.109 6.9825 4.041 8.8645.744.7248.213 2.4021-.826 2.4021h-73.9973c-3.3137 0-6-2.6863-6-6z" fill="#000"/><g stroke="#000" stroke-linecap="round" stroke-linejoin="round" stroke-width="2"><path d="m71.1729 30.4596c0 5.7653-4.2772 12.5269-12.8317 12.5269s-12.8317-6.7616-12.8317-12.5269c0-6.2156 4.0506-7.5646 8.4411-7.4335 1.802.0538 4.3906 1.4257 4.3906 1.4257s2.5886-1.3719 4.3906-1.4257c4.3905-.1311 8.4411 1.1701 8.4411 7.4335z" fill="#fff"/><path d="m62.1373 39.2438c1.3366-.5168 4.2558-2.545 5.2396-6.5228"/><path d="m58.6725 24.0349c-2.6365.0249-5.0478-1.7633-5.6845-6.8642 2.5119.9791 6.603.5203 5.6845 6.8642z" fill="#fff"/><path d="m58.7155 23.9529c1.1762-1.4703 2.9406-6.0149 1.4168-9.3297"/><path d="m51.2845 32.1698c-.5489-1.0287-.7038-2.7255-.1434-4.03"/></g><path d="m22.0248 50.1057c0-3.3137 2.6863-6 6-6h71.5284s-5.539 3.5752-6.1157 10.3317 6.1157 10.2847 6.1157 10.2847h-71.5284c-3.3137 0-6-2.6863-6-6z" fill="#fff"/><path clip-rule="evenodd" d="m100.642 45.7835c-.001.0006-.002.0012-.003.0018l-.019.0132c-.026.0174-.07.048-.13.0916-.12.0873-.303.2262-.5301.4155-.4556.3802-1.0774.9555-1.7154 1.7169-1.2805 1.5279-2.571 3.7347-2.8142 6.585-.2241 2.6252.9434 4.6665 2.3153 6.1461.6835.7371 1.3889 1.2999 1.924 1.6775.2656.1875.4844.3256.6304.4135.072.0439.126.0749.159.0931.016.009.026.0148.031.0174l-.002-.0008-.001-.0007c.002.0009.004.0018.005.0026.809.4303 1.223 1.356 1.003 2.2463-.221.8926-1.022 1.5196-1.9418 1.5196h-71.5284c-4.4183 0-8-3.5817-8-8v-8.6164c0-4.4183 3.5817-8 8-8h71.5284c.8868 0 1.6678.584 1.9188 1.4347.25.8482-.087 1.7595-.828 2.2415-.001.0006-.001.0011-.002.0016zm-3.7617 16.9386c1.3925 1.325 2.6729 2 2.6729 2h-71.5284c-3.3137 0-6-2.6863-6-6v-8.6164c0-3.3137 2.6863-6 6-6h71.5284s-1.0497.6775-2.2827 2c-1.5994 1.7155-3.5074 4.5164-3.833 8.3317-.3244 3.8011 1.6519 6.5805 3.4428 8.2847z" fill="#000" fill-rule="evenodd"/><path d="m16.8921 96.7604c0-3.3138 2.6863-6 6-6h71.5284s-5.0236 3.1408-5.858 10.1766c-.8343 7.037 5.858 10.44 5.858 10.44h-71.5284c-3.3137 0-6-2.687-6-6z" fill="#fff"/><path clip-rule="evenodd" d="m95.4857 92.4531c-.0002.0001.0002-.0001 0 0-.0011.0007-.0022.0014-.0033.0021-.0001 0 0-.0001 0 0m-3.2949.3052c1.204-1.3567 2.233-2 2.233-2h-71.5284c-3.3137 0-6 2.6862-6 6v8.6166c0 3.313 2.6863 6 6 6h71.5284s-1.2981-.66-2.6797-2c-1.7552-1.703-3.6452-4.502-3.1783-8.44.4567-3.8513 2.1688-6.5357 3.625-8.1766zm3.141 16.8346c.002.001.0039.002.0059.003.0009 0 .0007 0 0 0 .8197.421 1.2459 1.348 1.031 2.245-.2156.899-1.0199 1.534-1.9449 1.534h-71.5284c-4.4183 0-8-3.582-8-8v-8.6166c0-4.4183 3.5817-8 8-8h71.5284c.8921 0 1.6764.5909 1.9224 1.4484.245.8538-.1025 1.7662-.852 2.241-.0016.001-.0037.0023-.0052.0033m-.1526 17.1439c-.004-.002-.0139-.007-.0293-.016-.0309-.017-.0834-.046-.1544-.088-.1422-.083-.3564-.216-.6165-.398-.5241-.366-1.2126-.915-1.8726-1.643-1.3115-1.446-2.4407-3.505-2.1117-6.279.3636-3.0665 1.6333-5.2639 2.8045-6.6973.5877-.7192 1.1486-1.243 1.5518-1.5799.201-.1679.3611-.288.4632-.3612.051-.0365.0874-.0613.1069-.0743l.0107-.0072-.0021.0013-.0012.0008m-.1493 17.1418h-.0011l-.0022-.002" fill="#000" fill-rule="evenodd"/><path d="m35.1372 72.6205h46.6219" stroke="#fff" stroke-linecap="round" stroke-linejoin="round" stroke-width="2"/><path d="m35.1372 77.7414h25.4496" stroke="#fff" stroke-linecap="round" stroke-linejoin="round" stroke-width="2"/><path d="m76.9472 43.4194h8.2868v12.2604c0 .8909-1.0771 1.3371-1.7071.7071l-1.7292-1.7292c-.3905-.3905-1.0237-.3905-1.4142 0l-1.7292 1.7292c-.63.63-1.7071.1838-1.7071-.7071z" fill="#000"/><path d="m21.45 95.9477h46.6219" stroke="#000" stroke-linecap="round" stroke-linejoin="round" stroke-width="2"/><path d="m21.45 101.069h25.4496" stroke="#000" stroke-linecap="round" stroke-linejoin="round" stroke-width="2"/><path d="m27.4382 49.4527h39.1367" stroke="#000" stroke-linecap="round" stroke-linejoin="round" stroke-width="2"/></svg>

<svg width="128" height="128" viewBox="0 0 128 128" fill="none" xmlns="http://www.w3.org/2000/svg">
<rect width="128" height="128" rx="10" fill="#EF4444"/>
<path d="M29.1457 72.5776C29.1457 69.2639 31.832 66.5776 35.1457 66.5776H108.946C109.997 66.5776 110.54 68.3296 109.788 69.0637C107.907 70.8989 105.928 73.7536 105.928 77.6383C105.928 81.6481 108.037 84.6208 109.969 86.5028C110.713 87.2276 110.182 88.9049 109.143 88.9049H35.1457C31.832 88.9049 29.1457 86.2186 29.1457 82.9049V72.5776Z" fill="black"/>
<path d="M71.1729 30.4596C71.1729 36.2249 66.8957 42.9865 58.3412 42.9865C49.7867 42.9865 45.5095 36.2249 45.5095 30.4596C45.5095 24.244 49.5601 22.895 53.9506 23.0261C55.7526 23.0799 58.3412 24.4518 58.3412 24.4518C58.3412 24.4518 60.9298 23.0799 62.7318 23.0261C67.1223 22.895 71.1729 24.1962 71.1729 30.4596Z" fill="white" stroke="black" stroke-width="2" stroke-linecap="round" stroke-linejoin="round"/>
<path d="M62.1373 39.2438C63.4739 38.727 66.3931 36.6988 67.3769 32.721" stroke="black" stroke-width="2" stroke-linecap="round" stroke-linejoin="round"/>
<path d="M58.6725 24.0349C56.036 24.0598 53.6247 22.2716 52.988 17.1707C55.4999 18.1498 59.591 17.691 58.6725 24.0349Z" fill="white" stroke="black" stroke-width="2" stroke-linecap="round" stroke-linejoin="round"/>
<path d="M58.7155 23.9529C59.8917 22.4826 61.6561 17.938 60.1323 14.6232" stroke="black" stroke-width="2" stroke-linecap="round" stroke-linejoin="round"/>
<path d="M51.2845 32.1698C50.7356 31.1411 50.5807 29.4443 51.1411 28.1398" stroke="black" stroke-width="2" stroke-linecap="round" stroke-linejoin="round"/>
<path d="M22.0248 50.1057C22.0248 46.792 24.7111 44.1057 28.0248 44.1057H99.5532C99.5532 44.1057 94.0142 47.6809 93.4375 54.4374C92.8608 61.1939 99.5532 64.7221 99.5532 64.7221H28.0248C24.7111 64.7221 22.0248 62.0358 22.0248 58.7221V50.1057Z" fill="white"/>
<path fill-rule="evenodd" clip-rule="evenodd" d="M100.642 45.7835C100.641 45.7841 100.64 45.7847 100.639 45.7853L100.62 45.7985C100.594 45.8159 100.55 45.8465 100.49 45.8901C100.37 45.9774 100.187 46.1163 99.9599 46.3056C99.5043 46.6858 98.8825 47.2611 98.2445 48.0225C96.964 49.5504 95.6735 51.7572 95.4303 54.6075C95.2062 57.2327 96.3737 59.274 97.7456 60.7536C98.4291 61.4907 99.1345 62.0535 99.6696 62.4311C99.9352 62.6186 100.154 62.7567 100.3 62.8446C100.372 62.8885 100.426 62.9195 100.459 62.9377C100.475 62.9467 100.485 62.9525 100.49 62.9551L100.488 62.9543L100.487 62.9536C100.489 62.9545 100.491 62.9554 100.492 62.9562C101.301 63.3865 101.715 64.3122 101.495 65.2025C101.274 66.0951 100.473 66.7221 99.5532 66.7221H28.0248C23.6065 66.7221 20.0248 63.1404 20.0248 58.7221V50.1057C20.0248 45.6874 23.6065 42.1057 28.0248 42.1057H99.5532C100.44 42.1057 101.221 42.6897 101.472 43.5404C101.722 44.3886 101.385 45.2999 100.644 45.7819C100.643 45.7825 100.643 45.783 100.642 45.7835ZM96.8803 62.7221C98.2728 64.0471 99.5532 64.7221 99.5532 64.7221H28.0248C24.7111 64.7221 22.0248 62.0358 22.0248 58.7221V50.1057C22.0248 46.792 24.7111 44.1057 28.0248 44.1057H99.5532C99.5532 44.1057 98.5035 44.7832 97.2705 46.1057C95.6711 47.8212 93.7631 50.6221 93.4375 54.4374C93.1131 58.2385 95.0894 61.0179 96.8803 62.7221Z" fill="black"/>
<path d="M16.8921 96.7604C16.8921 93.4466 19.5784 90.7604 22.8921 90.7604H94.4205C94.4205 90.7604 89.3969 93.9012 88.5625 100.937C87.7282 107.974 94.4205 111.377 94.4205 111.377H22.8921C19.5784 111.377 16.8921 108.69 16.8921 105.377V96.7604Z" fill="white"/>
<path fill-rule="evenodd" clip-rule="evenodd" d="M95.4857 92.4531C95.4855 92.4532 95.4859 92.453 95.4857 92.4531C95.4846 92.4538 95.4835 92.4545 95.4824 92.4552C95.4823 92.4552 95.4824 92.4551 95.4824 92.4552M92.1875 92.7604C93.3915 91.4037 94.4205 90.7604 94.4205 90.7604H22.8921C19.5784 90.7604 16.8921 93.4466 16.8921 96.7604V105.377C16.8921 108.69 19.5784 111.377 22.8921 111.377H94.4205C94.4205 111.377 93.1224 110.717 91.7408 109.377C89.9856 107.674 88.0956 104.875 88.5625 100.937C89.0192 97.0857 90.7313 94.4013 92.1875 92.7604ZM95.3285 109.595C95.3305 109.596 95.3324 109.597 95.3344 109.598C95.3353 109.598 95.3351 109.598 95.3344 109.598C96.1541 110.019 96.5803 110.946 96.3654 111.843C96.1498 112.742 95.3455 113.377 94.4205 113.377H22.8921C18.4738 113.377 14.8921 109.795 14.8921 105.377V96.7604C14.8921 92.3421 18.4738 88.7604 22.8921 88.7604H94.4205C95.3126 88.7604 96.0969 89.3513 96.3429 90.2088C96.5879 91.0626 96.2404 91.975 95.4909 92.4498C95.4893 92.4508 95.4872 92.4521 95.4857 92.4531M95.3331 109.597C95.3291 109.595 95.3192 109.59 95.3038 109.581C95.2729 109.564 95.2204 109.535 95.1494 109.493C95.0072 109.41 94.793 109.277 94.5329 109.095C94.0088 108.729 93.3203 108.18 92.6603 107.452C91.3488 106.006 90.2196 103.947 90.5486 101.173C90.9122 98.1065 92.1819 95.9091 93.3531 94.4757C93.9408 93.7565 94.5017 93.2327 94.9049 92.8958C95.1059 92.7279 95.266 92.6078 95.3681 92.5346C95.4191 92.4981 95.4555 92.4733 95.475 92.4603L95.4857 92.4531L95.4836 92.4544L95.4824 92.4552M95.3331 109.597L95.332 109.597L95.3298 109.595" fill="black"/>
<path d="M35.1372 72.6205H81.7591" stroke="white" stroke-width="2" stroke-linecap="round" stroke-linejoin="round"/>
<path d="M35.1372 77.7414H60.5868" stroke="white" stroke-width="2" stroke-linecap="round" stroke-linejoin="round"/>
<path d="M76.9472 43.4194H85.234V55.6798C85.234 56.5707 84.1569 57.0169 83.5269 56.3869L81.7977 54.6577C81.4072 54.2672 80.774 54.2672 80.3835 54.6577L78.6543 56.3869C78.0243 57.0169 76.9472 56.5707 76.9472 55.6798V43.4194Z" fill="black"/>
<path d="M21.45 95.9477H68.0719" stroke="black" stroke-width="2" stroke-linecap="round" stroke-linejoin="round"/>
<path d="M21.45 101.069H46.8996" stroke="black" stroke-width="2" stroke-linecap="round" stroke-linejoin="round"/>
<path d="M27.4382 49.4527H66.5749" stroke="black" stroke-width="2" stroke-linecap="round" stroke-linejoin="round"/>
</svg>
